src/assets/img/components/advantagesTriangle/map.svg

<svg width="57" height="44" viewBox="0 0 57 44" fill="none" xmlns="http://www.w3.org/2000/svg">
<path fill-rule="evenodd" clip-rule="evenodd" d="M19.2387 0.270308C18.7093 -0.0359587 18.0401 -0.104264 17.4113 0.181407L1.17278 7.55845C0.458583 7.8829 0 8.59492 0 9.37936V41.8288C0 43.241 1.42398 44.2084 2.73684 43.6881L19.2624 37.139C19.339 37.1818 19.4189 37.2199 19.502 37.2528L35.7405 43.6881C36.346 43.928 36.9752 43.8516 37.4774 43.5609C37.9795 43.8516 38.6087 43.928 39.2142 43.6881L55.4527 37.2528C56.2152 36.9506 56.7159 36.2136 56.7159 35.3935V2.00231C56.7159 0.547916 55.2128 -0.420149 53.8887 0.181407L37.6501 7.55845C37.5907 7.58544 37.5331 7.6151 37.4774 7.64727C37.4216 7.6151 37.364 7.58544 37.3046 7.55845L21.0661 0.181407C20.4372 -0.104264 19.7681 -0.0359587 19.2387 0.270308ZM20.2388 21.3438L20.5378 21.4639C21.0503 21.6699 21.6326 21.4214 21.8386 20.909C22.0445 20.3965 21.796 19.8141 21.2836 19.6082L20.2388 19.1883V2.00231L36.4774 9.37936V25.7143L34.9625 25.1055C34.45 24.8996 33.8677 25.148 33.6617 25.6605C33.4558 26.1729 33.7042 26.7553 34.2167 26.9613L36.4774 27.8698V41.8288L20.2388 35.3935V21.3438ZM38.4774 9.37936V25.3793L38.8447 25.2606C39.3703 25.0909 39.934 25.3793 40.1037 25.9048C40.2735 26.4303 39.9851 26.994 39.4595 27.1638L38.4774 27.4811V41.8288L54.7159 35.3935V2.00231L38.4774 9.37936ZM18.2385 18.6966V2.00231L2 9.37936L1.58639 8.4689L2 9.37936V41.8288L18.2385 35.3935V20.8051L17.54 21.0384C17.0161 21.2133 16.4497 20.9304 16.2747 20.4066C16.0998 19.8827 16.3827 19.3163 16.9065 19.1413L18.2385 18.6966ZM14.7247 21.9784C15.2486 21.8035 15.5314 21.2371 15.3565 20.7132C15.1816 20.1894 14.6151 19.9065 14.0913 20.0814L12.6836 20.5514C12.6078 20.5767 12.5371 20.6102 12.4721 20.6506C11.854 19.6595 10.754 19 9.5 19C7.567 19 6 20.567 6 22.5C6 24.433 7.567 26 9.5 26C11.4329 26 12.9999 24.4331 13 22.5002C13.1051 22.5003 13.2119 22.4836 13.3171 22.4485L14.7247 21.9784ZM25.8432 21.4406C25.3308 21.2347 24.7484 21.4832 24.5425 21.9956C24.3365 22.5081 24.585 23.0904 25.0974 23.2964L29.6571 25.1288C30.1695 25.3348 30.7519 25.0863 30.9578 24.5738C31.1638 24.0614 30.9153 23.479 30.4029 23.2731L25.8432 21.4406ZM46.3078 24.9515C46.8333 24.7818 47.1217 24.2181 46.9519 23.6926C46.7822 23.167 46.2185 22.8786 45.693 23.0484L43.4102 23.7858C42.8847 23.9556 42.5963 24.5192 42.766 25.0448C42.9358 25.5703 43.4995 25.8587 44.025 25.689L46.3078 24.9515ZM9.5 24C10.3284 24 11 23.3284 11 22.5C11 21.6716 10.3284 21 9.5 21C8.67157 21 8 21.6716 8 22.5C8 23.3284 8.67157 24 9.5 24ZM50 16.5C50 16.4915 50 16.4916 49.9983 16.5009C49.9925 16.5323 49.9677 16.6683 49.8599 16.9325C49.7323 17.2454 49.5367 17.6223 49.2852 18.0419C49.0438 18.4447 48.7719 18.8525 48.5 19.237C48.2281 18.8525 47.9562 18.4447 47.7148 18.0419C47.4633 17.6223 47.2677 17.2454 47.1401 16.9325C47.0323 16.6683 47.0075 16.5323 47.0017 16.5009C47 16.4916 47 16.4915 47 16.5C47 15.6716 47.6716 15 48.5 15C49.3284 15 50 15.6716 50 16.5ZM52 16.5C52 17.8637 50.2581 20.2895 49.232 21.6001C48.8549 22.0817 48.1451 22.0817 47.768 21.6001C46.7419 20.2895 45 17.8637 45 16.5C45 14.567 46.567 13 48.5 13C50.433 13 52 14.567 52 16.5Z" fill="#41456B"/>
</svg>

<svg width="57" height="44" fill="none" xmlns="http://www.w3.org/2000/svg"><path fill-rule="evenodd" clip-rule="evenodd" d="M19.239.27A1.982 1.982 0 0 0 17.41.181L1.173 7.558A2 2 0 0 0 0 9.38v32.45a2 2 0 0 0 2.737 1.86l16.525-6.55a2.2 2.2 0 0 0 .24.114l16.238 6.435c.606.24 1.235.164 1.737-.127.503.29 1.132.367 1.737.127l16.239-6.435a2 2 0 0 0 1.263-1.86V2.004A2 2 0 0 0 53.889.18L37.65 7.558a1.77 1.77 0 0 0-.173.09 2.014 2.014 0 0 0-.172-.09L21.066.181a1.982 1.982 0 0 0-1.827.09Zm1 21.074.299.12a1 1 0 1 0 .746-1.856l-1.045-.42V2.002L36.477 9.38v16.335l-1.514-.608a1 1 0 0 0-.746 1.855l2.26.909V41.83L20.24 35.394v-14.05ZM38.477 9.379v16l.368-.118a1 1 0 0 1 .614 1.903l-.982.317V41.83l16.239-6.435V2.002L38.477 9.38ZM18.24 18.697V2.002L2 9.38l-.414-.91.414.91v32.45l16.238-6.435v-14.59l-.698.233a1 1 0 0 1-.633-1.897l1.331-.444Zm-3.514 3.281a1 1 0 1 0-.634-1.897l-1.407.47a1 1 0 0 0-.212.1A3.5 3.5 0 1 0 13 22.5a.997.997 0 0 0 .317-.053l1.408-.47Zm11.118-.537a1 1 0 0 0-.746 1.855l4.56 1.833a1 1 0 1 0 .746-1.856l-4.56-1.832Zm20.465 3.51a1 1 0 1 0-.615-1.903l-2.283.738a1 1 0 0 0 .615 1.903l2.283-.738ZM9.5 24a1.5 1.5 0 1 0 0-3 1.5 1.5 0 0 0 0 3ZM50 16.5c0-.009 0-.008-.002 0-.005.032-.03.168-.138.433a8.48 8.48 0 0 1-.575 1.109c-.241.403-.513.81-.785 1.195a19.186 19.186 0 0 1-.785-1.195 8.48 8.48 0 0 1-.575-1.11 2.087 2.087 0 0 1-.138-.431C47 16.49 47 16.49 47 16.5a1.5 1.5 0 0 1 3 0Zm2 0c0 1.364-1.742 3.79-2.768 5.1a.922.922 0 0 1-1.464 0C46.742 20.29 45 17.864 45 16.5a3.5 3.5 0 1 1 7 0Z" fill="#41456B"/></svg>
